X: 1
T: A North Country Maid
M: 2/4
L: 1/8
R: polka
K: Amin
|:E|A2 AB|c2  BA|B2 Bc|d2  cB|
A2  AB|c2  BA|^GB  e_e|=e2   e=f|
=g2  ed|c2  Bc|dc  BA|^G2  AB|
c2  BA|^G2  ^F^G|A2 AG|A2  e=f|
g2  ed|c2  Bc|dc BA|^G2  AB|
c2  BA|^G2  ^F^G|A2 AG| A3  :|
